X: 487
T: A Winston Tune
R: reel
M: 4/4
K: Fmajor
|:G|FCA,C FGAB|cAfd cAfA|BGEG CGEG|{d}c=Bcd (c_B)AG|
FCA,C FGAB||cAfd cAFA|B/B/B dB Acfa|1 gbeg f2f:|2 gbeg fcAB||
c2 a2 a3 c|B2 g2 g4|BABc Bcde|fgaf cBAB|
c2 a2 abaf|e2 g2 ga~gf|eceg bgeg|1 ~f2 a2 f2 AB:|2 f2 a2 f2||

